img/logo-footer.svg

<svg width="42" height="35" viewBox="0 0 42 35" fill="none" xmlns="http://www.w3.org/2000/svg">
<path d="M14.8448 3L2.78458 15.1863C1.24204 16.745 1.24204 19.255 2.78458 20.8137L14.8448 33M14.8448 3V26.7805V18M14.8448 3L16.9794 11.7624C17.9566 15.7739 23.6322 15.8549 24.7235 11.8729L27.1552 3M27.1552 33L39.2154 20.8137C40.758 19.255 40.758 16.745 39.2154 15.1863L27.1552 3M27.1552 3V26.7805" stroke="#5C5CCC" stroke-width="3"/>
</svg>

<svg width="42" height="35" fill="none" xmlns="http://www.w3.org/2000/svg"><path d="M14.845 3 2.785 15.186a4 4 0 0 0 0 5.628L14.845 33m0-30v23.78V18m0-15 2.134 8.762c.978 4.012 6.653 4.093 7.745.11L27.155 3m0 30 12.06-12.186a4 4 0 0 0 0-5.628L27.155 3m0 0v23.78" stroke="#5C5CCC" stroke-width="3"/></svg>
